X: 4
T: No_101_We_are_Making_Wonderful_Things.krn
N: Derived from No_101_We_are_Making_Wonderful_Things.krn
%%abc-version 2.0
%%abcx-abcm2ps-target-version 5.9.1 (29 Sep 2008)
%%abc-creator hum2abc beta
%%abcx-conversion-date 2019/03/15 08:37:56
%%humdrum-veritas 2141443125
%%humdrum-veritas-data 1425257435
%%linebreak <none>
%%barnumbers 0
L: 1/8
M: 2/4
K: G clef=bass
B, [I:setbarnb 1]| 
B,A, B,A, ||  
[M:3/4]B,3A, G,E, | 
G,2E,D, z A, | 
[M:2/4]A,2G,E, ||  
[M:3/4]E,4F,D, | 
E,2D,2B,,/ z/ E, | 
E,E,E,2E,D, | 
E,2E,2D,2 ||  
[M:2/4]E,D, B,,(D, ||  
[M:3/4]D,4)B,,/A,,/ z | 
E,E,E,2D,2 | 
E,E, E,D, E,E, ||  
[M:2/4]E,4 | 
z3A, | 
A,2F,E, | 
E,2F,E, | 
E,3D, ||  
[M:3/4]E,2D,2B,,/A,,/ z | 
E,4F,D, ||  
[M:2/4]E,2D,B,, ||  
[M:3/4]E,3D,E,2 | 
E,6 |]  



